Numix-GalliumOS/64/emblems/emblem-important.svg

<?xml version="1.0" encoding="UTF-8" standalone="no"?>
<svg
   xmlns:dc="http://purl.org/dc/elements/1.1/"
   xmlns:cc="http://creativecommons.org/ns#"
   xmlns:rdf="http://www.w3.org/1999/02/22-rdf-syntax-ns#"
   xmlns:svg="http://www.w3.org/2000/svg"
   xmlns="http://www.w3.org/2000/svg"
   xmlns:sodipodi="http://sodipodi.sourceforge.net/DTD/sodipodi-0.dtd"
   xmlns:inkscape="http://www.inkscape.org/namespaces/inkscape"
   width="64"
   height="64"
   viewBox="0 0 64 64"
   id="svg2"
   version="1.1"
   inkscape:version="0.91 r13725"
   sodipodi:docname="emblem-important.svg">
  <metadata
     id="metadata12">
    <rdf:RDF>
      <cc:Work
         rdf:about="">
        <dc:format>image/svg+xml</dc:format>
        <dc:type
           rdf:resource="http://purl.org/dc/dcmitype/StillImage" />
      </cc:Work>
    </rdf:RDF>
  </metadata>
  <defs
     id="defs10" />
  <sodipodi:namedview
     pagecolor="#ffffff"
     bordercolor="#666666"
     borderopacity="1"
     objecttolerance="10"
     gridtolerance="10"
     guidetolerance="10"
     inkscape:pageopacity="0"
     inkscape:pageshadow="2"
     inkscape:window-width="1366"
     inkscape:window-height="704"
     id="namedview8"
     showgrid="false"
     inkscape:zoom="1"
     inkscape:cx="26.147402"
     inkscape:cy="21.599441"
     inkscape:window-x="0"
     inkscape:window-y="27"
     inkscape:window-maximized="1"
     inkscape:current-layer="svg2">
    <inkscape:grid
       type="xygrid"
       id="grid4140" />
  </sodipodi:namedview>
  <path
     style="fill:#fff;stroke:#777;stroke-width:.5"
     d="M 25.932953 35.186401 C 25.932953 42.095309 20.446393 47.695712 13.677926 47.695712 C 6.90946 47.695712 1.4229 42.095309 1.4229 35.186401 C 1.4229 28.277492 6.90946 22.677089 13.677926 22.677089 C 20.446393 22.677089 25.932953 28.277492 25.932953 35.186401 Z "
     transform="matrix(2.13305 0 0 2.08969 2.82425 -41.52879)"
     id="path4" />
  <path
     style="opacity:1;fill:#dc322f;fill-opacity:1;stroke:none;stroke-width:2;stroke-linecap:round;stroke-linejoin:round;stroke-miterlimit:4;stroke-dasharray:none;stroke-opacity:1"
     d="M 29 12 C 27.892 12 27 12.892 27 14 L 27 34 C 27 35.108 27.892 36 29 36 L 35 36 C 36.108 36 37 35.108 37 34 L 37 14 C 37 12.892 36.108 12 35 12 L 29 12 z M 29 42 C 27.892 42 27 42.892 27 44 L 27 50 C 27 51.108 27.892 52 29 52 L 35 52 C 36.108 52 37 51.108 37 50 L 37 44 C 37 42.892 36.108 42 35 42 L 29 42 z "
     id="rect4142" />
</svg>

<svg xmlns="http://www.w3.org/2000/svg" viewBox="0 0 64 64">
 <path d="m 25.933 35.19 c 0 6.909 -5.487 12.509 -12.255 12.509 c -6.768 0 -12.255 -5.6 -12.255 -12.509 c 0 -6.909 5.487 -12.509 12.255 -12.509 c 6.768 0 12.255 5.6 12.255 12.509 Z" transform="matrix(2.13305 0 0 2.08969 2.82425 -41.52879)" style="fill:#fff;stroke:#777;stroke-width:0.5"/>
 <path d="m 29 12 c -1.108 0 -2 0.892 -2 2 l 0 20 c 0 1.108 0.892 2 2 2 l 6 0 c 1.108 0 2 -0.892 2 -2 l 0 -20 c 0 -1.108 -0.892 -2 -2 -2 l -6 0 z m 0 30 c -1.108 0 -2 0.892 -2 2 l 0 6 c 0 1.108 0.892 2 2 2 l 6 0 c 1.108 0 2 -0.892 2 -2 l 0 -6 c 0 -1.108 -0.892 -2 -2 -2 l -6 0 z" style="fill:#dc322f;opacity:1;fill-opacity:1;stroke:none"/>
</svg>
